lib/icons/discord.svg

<svg width="20" height="15" viewBox="0 0 20 15" fill="none" xmlns="http://www.w3.org/2000/svg">
<path fill-rule="evenodd" clip-rule="evenodd" d="M13.6302 13.4966C14.1438 14.1387 14.7603 14.8836 14.7603 14.8836C15.7796 14.9094 16.7898 14.6858 17.703 14.2321C18.6162 13.7786 19.4047 13.1087 20 12.2808C19.9444 8.80945 19.1013 5.39601 17.5342 2.29794C16.1553 1.21486 14.474 0.586615 12.7226 0.5L12.4829 0.773953C14.0414 1.18632 15.4945 1.92457 16.7466 2.9401C15.1522 2.06122 13.4013 1.5028 11.5924 1.29625C10.444 1.17868 9.28572 1.1988 8.1421 1.35615C8.04431 1.35909 7.94686 1.37059 7.85103 1.39038C6.50713 1.54055 5.19537 1.90171 3.96402 2.46059C3.33048 2.74316 2.95378 2.95722 2.95378 2.95722C4.26946 1.88897 5.80403 1.12315 7.44866 0.714054L7.27739 0.5C5.52602 0.586615 3.84481 1.21486 2.46577 2.29794C0.898675 5.39601 0.0555875 8.80945 0 12.2808C0.590495 13.1095 1.37571 13.7803 2.2864 14.2342C3.1971 14.688 4.20545 14.911 5.22261 14.8836C5.22261 14.8836 5.42308 14.6371 5.68991 14.3071C5.89743 14.0504 6.14513 13.7433 6.3699 13.4623C5.16604 13.1587 4.10609 12.444 3.37327 11.4418C3.98499 11.8491 4.63956 12.1879 5.32536 12.4521C6.14023 12.7737 6.98273 13.0201 7.84247 13.1884C9.30682 13.4699 10.8109 13.4757 12.2774 13.2055C13.1306 13.0563 13.9637 12.8092 14.7603 12.4692C15.4527 12.2079 16.1133 11.869 16.7295 11.4589C15.9692 12.4826 14.8714 13.2044 13.6302 13.4966ZM5.55163 7.4956C5.87594 7.14352 6.32084 6.92627 6.79794 6.88701C7.03799 6.8955 7.27393 6.95161 7.49203 7.05201C7.7102 7.15247 7.90623 7.29526 8.06868 7.47208C8.23119 7.64897 8.35694 7.8563 8.43865 8.08217C8.5203 8.30798 8.55629 8.54778 8.54454 8.7877C8.55486 9.02723 8.51789 9.26643 8.43565 9.49165C8.35347 9.71688 8.2276 9.92368 8.06541 10.1002C7.90316 10.2767 7.70772 10.4195 7.49027 10.5205C7.27275 10.6214 7.03753 10.6785 6.79794 10.6884C6.32084 10.6491 5.87594 10.4319 5.55163 10.0797C5.22725 9.72759 5.04723 9.26643 5.04723 8.7877C5.04723 8.30896 5.22725 7.84774 5.55163 7.4956ZM11.9477 7.12784C12.2818 6.93861 12.6653 6.85468 13.048 6.88701C13.2875 6.89687 13.5228 6.95396 13.7402 7.05488C13.9578 7.1558 14.1532 7.29859 14.3154 7.47515C14.4776 7.65171 14.6034 7.85845 14.6857 8.08368C14.7679 8.3089 14.8049 8.54817 14.7946 8.7877C14.7945 9.17171 14.6785 9.54678 14.4617 9.86378C14.245 10.1808 13.9376 10.4249 13.5797 10.5643C13.2219 10.7037 12.8303 10.7319 12.4562 10.6451C12.0821 10.5582 11.743 10.3605 11.4832 10.0777C11.2233 9.79493 11.0549 9.44031 11 9.06028C10.945 8.68018 11.0061 8.29237 11.1752 7.94761C11.3442 7.60279 11.6135 7.31708 11.9477 7.12784Z" fill="#2F354D"/>
</svg>

<svg width="20" height="15" fill="none" xmlns="http://www.w3.org/2000/svg"><path fill-rule="evenodd" clip-rule="evenodd" d="M13.63 13.497c.514.642 1.13 1.387 1.13 1.387A6.258 6.258 0 0 0 20 12.28a22.93 22.93 0 0 0-2.466-9.983A8.467 8.467 0 0 0 12.723.5l-.24.274a11.396 11.396 0 0 1 4.264 2.166 13.957 13.957 0 0 0-5.155-1.644 14.488 14.488 0 0 0-3.45.06 1.691 1.691 0 0 0-.291.034 12.86 12.86 0 0 0-3.887 1.07c-.634.283-1.01.497-1.01.497A11.557 11.557 0 0 1 7.449.714L7.277.5a8.467 8.467 0 0 0-4.811 1.798A22.93 22.93 0 0 0 0 12.28a6.208 6.208 0 0 0 5.223 2.603l.467-.577.68-.845a5.326 5.326 0 0 1-2.997-2.02c.612.407 1.267.746 1.952 1.01.815.322 1.658.568 2.517.736 1.465.282 2.969.288 4.435.018a11.27 11.27 0 0 0 2.483-.737 9.798 9.798 0 0 0 1.97-1.01 5.403 5.403 0 0 1-3.1 2.038ZM5.552 7.496c.324-.352.769-.57 1.246-.609a1.813 1.813 0 0 1 1.747 1.9 1.823 1.823 0 0 1-1.747 1.901 1.907 1.907 0 0 1-1.246-3.192Zm6.396-.368c.334-.19.717-.273 1.1-.241a1.822 1.822 0 0 1 1.747 1.9 1.907 1.907 0 1 1-2.847-1.66Z" fill="#2F354D"/></svg>
